X:242
T: Die Nonne (18a), S. 76f
N: T0131
O: Luxemburg
S: Singendes Volk, Esch-Alzette 1937 posth.]
N: (18b)- Junglinster, Mutter des Autors, 1890
N: (18c)- Straen, fff Dmont-Witry, 1932
N: (18d)- Fels, fff Gdert, 1930
N: (18e)- Bofferdingen, fff Georges-Mallinger, 16.9.1934
R: Liebeslieder]
M: 6/8
L: 1/16
K: G
D2 | G2D2D2B,2D2B2 | B2A2z6
DD | D2F2A2e2d2c2 | B4z6
Bc | d2d2d2d2c2B2 | c2A2z6
D2 | D2F2A2c2B2A2 | G4z6
Bc | d2d2d2d2c2B2 | c2A2z6
D2 | D2F2A2c2B2A2 | G4z6

